!!!COM: Ernest Reyer
!!!CNT: Francais
!!!TXO: Francais
!!!OTL: Vielle chanson du jeune temps
!!!LYR: Victor Hugo
!!!ENC: Jacob Pegg
!!!YOR: Romantic French Song 1830-1870 -David Tunley, ed.,
!!!YOR: New York: Garland Publishing, Inc., 1995,
!!!YOR: Vol. 1 - 'Early Romances'
!!!ODT: 1860/
!!NB: Vocal melody and text only encoded.
!!NB: First instance of melodic material only encoded.
**kern	**silbe
*clef G2	*
*k[b-e-a-d-g-]	*
*M2/4	*
=7	=7
{(16cc	{Je
16dd-)	|
8b-	ne
8b-	pen-
8cc	-sais
=8	=8
8dd-	pas
8ee-	a\
8ee-	Ro-
8dd-}	-se;}
=9	=9
{(16dd-	{Ro-
16ee-)	-se
8cc	au
8cc	bois
8dd-	vint
=10	=10
8ee-	a-
8ff	-vec
[4ff	moi;
=11	=11
2ff_	|
=12	=12
2ff]}	|}
=13	=13
{16cc	{Nous
16dd-	|
8b-	par-
8b-	-lons
8cc	de
=14	=14
8dd-	quel-
8ee-	-que
8ee-	cho-
8dd-}	-se,}
=15	=15
{(16dd-	{Mais
16ee-)	|
8cc	je
8cc	ne
8dd-	sais
=16	=16
8ee-	plus
8ff	de
[4ff	quoi.
=17	=17
2ff_	|
=18	=18
2ff]}	|}
=19	=19
4r	.
{8cc	{J'e/-
8cc	-tais
=20	=20
8cc	froid
8cc	com-
8cc	-me
8cc	les
=21	=21
[2cc	mar-
=22	=22
(2cc]	|
=23	=23
2dd-)}	-bres;}
=24	=24
4r	.
{8b-	{Je
8b-	mar-
=25	=25
8b-	-chais
8b-	a\
8b-	pas
8b-	dis-
=26	=26
[2b-	-traits;
=27	=27
(2b-]	|
=28	=28
2dd-)}	|}
=29	=29
4r	.
{16ee-	{J'ai
16dd-	|
8b-	par-
=30	=30
8b-	-lais
8b-	des
8b-	fleurs,
8ee-	des
=31	=31
[2ee-	ar-
=32	=32
8ee-]}	-bres;}
8r	.
{(16ee-	{Son
16dd-)	|
8b-	oeil
=33	=33
8b-	sem-
8b-	-blait
[16b-	di-
16b-]	-re:
16r	.
16ee-	"A-
=34	=34
[2cc	-pre\s?"
=35	=35
4cc]}	|}
4r	.
=36	=36
{(16cc	{La
16dd-)	|
8b-	ro-
8b-	-se-
8cc	-e/ of-
=37	=37
8dd-	-frait
8ee-	ses
8ee-	per-
8dd-}	-les,}
=38	=38
{(16dd-	{Le
16ee-)	|
8cc	tail-
8cc	-lis
8dd-	ses
=39	=39
8ee-	pa-
8ff	-ra-
[4ff	-sols;
=40	=40
2ff_	|
=41	=41
2ff]}	|}
=42	=42
{(16cc	{J'al-
16dd-)	|
8b-	-lais;
8b-	j'e/-
8cc	-cou-
=43	=43
8dd-	-tais
8ee-	les
8ee-	mer-
8dd-}	-les,}
=44	=44
{(16dd-	{Et
16ee-)	|
8cc	Ro-
8cc	-se
8dd-	les
=45	=45
8ee-	ros-
8ff	-si-
[4ff	-gnols,
=46	=46
2ff_	|
=47	=47
2ff]}	|}
=48	=48
*M3/4	*
{8f	{Et
8an	Ro-
8cc	-se
8ee-	les
(16dd-q	|
16ee-q	|
8dd-)	ros-
8cc	-si-
=49	=49
*M2/4	*
2b-}	-gnols.}
*-	*-
